X: 2
T: The Legacy
R: jig
M: 6/8
L: 1/8
K: Gmaj
G3 BAB|ggd gab|G3 BAB|dBG A3|G3 BAB|ggd gab|age eeg|1dBG A3:|2dBG ABd|:e3 edB|d3 dBd|ege edB|d2 B ABd|e3 edB|dBd def|g3 ege|dBG A3:|


Tune 2259	Setting 28261

